X: 15697
T: Golden Eagle, The
R: hornpipe
M: 4/4
K: Gmajor
|:(3cBA|GB,DG BDGB|dGBd gbag|fedB =cAFA|GBAG (3FED (3cBA|
GB,DG BDGB|dGBd gbag|fedB =cAFA|G2 GF G2:|
|:(3bbb|bB^df bagf|e^def gfg^g|aA^ce agfe|(3ded ^ce d2ab|
c'afd ^cdef|gfga b2ag|fedB =cAFA|G2 GF G2:|

